svg/material-icons/notification_add/materialiconsround/20px.svg

<svg xmlns="http://www.w3.org/2000/svg" width="20" height="20" viewBox="0 0 20 20"><path d="M15 11.03A4.489 4.489 0 0 1 12.5 7c0-.73.17-1.41.48-2.02-.58-.42-1.25-.73-1.98-.88V3.03c0-.53-.4-1-.93-1.03C9.48 1.96 9 2.43 9 3v1.1A5 5 0 0 0 5 9v5h-.25c-.41 0-.75.34-.75.75s.34.75.75.75h10.5c.41 0 .75-.34.75-.75s-.34-.75-.75-.75H15v-2.97zM10 18c.83 0 1.5-.67 1.5-1.5h-3c0 .83.67 1.5 1.5 1.5zm9.31-11.69h-1.56V4.75c0-.41-.34-.75-.75-.75s-.75.34-.75.75v1.56h-1.56c-.38 0-.69.31-.69.69 0 .38.31.69.69.69h1.56v1.56c0 .41.34.75.75.75s.75-.34.75-.75V7.69h1.56c.38 0 .69-.31.69-.69 0-.38-.31-.69-.69-.69z"/></svg>

<svg xmlns="http://www.w3.org/2000/svg" enable-background="new 0 0 20 20" height="20" viewBox="0 0 20 20" width="20"><rect fill="none" height="20" width="20"/><g><path d="M15,11.03C13.52,10.3,12.5,8.77,12.5,7c0-0.73,0.17-1.41,0.48-2.02C12.4,4.56,11.73,4.25,11,4.1V3.03 c0-0.53-0.4-1-0.93-1.03C9.48,1.96,9,2.43,9,3v1.1C6.72,4.56,5,6.58,5,9v5H4.75C4.34,14,4,14.34,4,14.75v0 c0,0.41,0.34,0.75,0.75,0.75h10.5c0.41,0,0.75-0.34,0.75-0.75v0c0-0.41-0.34-0.75-0.75-0.75H15L15,11.03z M10,18 c0.83,0,1.5-0.67,1.5-1.5h-3C8.5,17.33,9.17,18,10,18z M19.31,6.31h-1.56V4.75C17.75,4.34,17.41,4,17,4l0,0 c-0.41,0-0.75,0.34-0.75,0.75v1.56h-1.56C14.31,6.31,14,6.62,14,7v0c0,0.38,0.31,0.69,0.69,0.69h1.56v1.56 C16.25,9.66,16.59,10,17,10l0,0c0.41,0,0.75-0.34,0.75-0.75V7.69h1.56C19.69,7.69,20,7.38,20,7v0C20,6.62,19.69,6.31,19.31,6.31z"/></g></svg>
